!!!OTL@@DE: Aufmunterung zur Freude
!!!ONB: Componist unbekannt
!!!OMD: M&auml;ssig und heiter
!!!LYR: H&ouml;lty, Ludwig Heinrich Christoph
!!!LDT: 1776
!!!OCL: Erk, Ludwig
!!!GCO: Deutscher Liederschatz, Band 1
**kern	**kern	**kern
*staff3	*staff2	*staff1
*Ipiano	*Ipiano	*Ivox
*>[P,A,A,B]	*>[P,A,A,B]	*>[P,A,A,B]
*>norep[P,A,B]	*>norep[P,A,B]	*>norep[P,A,B]
*>P	*>P	*>P
*clefF4	*clefG2	*clefG2
*k[]	*k[]	*k[]
*C:	*C:	*C:
*M3/8	*M3/8	*M3/8
*MM64	*MM64	*MM64
8r	8G/	8g/
=1!|:	=1!|:	=1!|:
*>A	*>A	*>A
4CC/	16c/ 16e/LL	(8.cc\L
.	16G/	.
.	16c/ 16e/	.
.	16G/	16b\Jk
8C/	16c/ 16f/	8a/)
.	16A/JJ	.
=2	=2	=2
4CC/	16c/ 16e/LL	4g/
.	16G/	.
.	16c/ 16e/	.
.	16G/	.
8C/	16c/ 16e/	8e/
.	16G/JJ	.
=3	=3	=3
4GG/ 4D/	16B/ 16f/LL	4f/
.	16G/	.
.	16B/ 16f/	.
.	16G/	.
8BB/	16d/ 16g/	8g/
.	16G/JJ	.
=4	=4	=4
*^	*	*
4C\	8C/L	16c/ 16e/LL	8e/
.	.	16G/	.
.	8E/J	16c/	8c/
.	.	16G/JJ	.
*v	*v	*	*
8GG/ 8D/	16B/ 16f/LL	(16.f/LL
.	16G/JJ	.
.	.	32e/JJk)
=5	=5	=5
4C/	16c/ 16e/LL	4e/
.	16G/	.
.	16e/ 16g/	.
.	16c/JJ	.
8D\ 8A\	16f#/ 16cc/LL	(16.cc\LL
.	16c/JJ	.
.	.	32b\JJk)
=6	=6	=6
8D#\ 8A\L	16f#/ 16b/LL	4b\
.	16B/	.
8E\ 8G\	16e/ 16b/	.
.	16B/JJ	.
8C\J	16e/ 16a/LL	(16.dd\LL
.	16c/JJ	.
.	.	32cc\JJk)
=7	=7	=7
4Dn\	16d/ 16g/LL	(16.b/LL
.	16B/	.
.	.	32a/Jk
.	16d/ 16g/	8g/J)
.	16B/JJ	.
8DD/ 8D/	16d/ 16f#/LL	8f#/
.	16c/JJ	.
=8	=8	=8
4GG/	16B/ 16g/LL	4g/
.	16G/	.
.	16B/ 16d/	.
.	16G/JJ	.
8r	16B/ 16g/LL	8g/
.	16G/JJ	.
=9:|!	=9:|!	=9:|!
*>B	*>B	*>B
4GG/	16B/ 16d/LL	(8.b/L
.	16G/	.
.	16B/ 16d/	.
.	16G/JJ	16a/Jk)
8Fn\	16B/ 16d/ 16g/LL	8g/
.	16G/JJ	.
=10	=10	=10
4E\	16c/ 16g/LL	4cc\
.	16G/	.
.	16c/ 16g/	.
.	16G/JJ	.
8C/	16c/ 16e/LL	8g/
.	16G/JJ	.
=11	=11	=11
4BB/	16d/ 16g/LL	8g/L
.	16G/	.
.	16d/ 16f/	8f/J
.	16G/	.
8C/	16c/ 16e/	8e/
.	16G/JJ	.
=12	=12	=12
4GG/	16c/ 16e/LL	8e/
.	16G/	.
.	16B/ 16d/	8d/
.	16G/JJ	.
8GG/	16B/ 16d/ 16g/LL	8g/
.	16G/JJ	.
=13	=13	=13
4GG/	16B/ 16d/LL	(8.b/L
.	16G/	.
.	16B/ 16d/	.
.	16G/JJ	16a/Jk)
8F\	16B/ 16d/ 16g/LL	8b\
.	16G/JJ	.
=14	=14	=14
4E\	16c/ 16g/LL	4cc\
.	16G/	.
.	16c/ 16g/	.
.	16G/JJ	.
8C/	16c/ 16e/LL	8e/
.	16G/JJ	.
=15	=15	=15
4AA/	16c/ 16f#/LL	8f#/L
.	16A/	.
.	16c/ 16e/	8e/J
.	16A/	.
8D\	16c/ 16f#/	8f#/
.	16A/JJ	.
=16	=16	=16
4GG/	16B/ 16g/LL	4g/
.	16G/	.
.	16B/ 16g/	.
.	16G/JJ	.
8GG/	16d/ 16g/LL	8g/
.	16B/JJ	.
=17	=17	=17
4F\	16d/ 16g/LL	8dd\L
.	16B/	.
.	16d/ 16g/	16cc\L
.	16B/	16b\JJ
8G\	16d/ 16g/	16a/LL
.	16B/JJ	16b/JJ
=18	=18	=18
4E\	16e/ 16g/LL	4cc\
.	16c/	.
.	16e/ 16g/	.
.	16c/	.
8G\	16e/ 16g/	8cc\
.	16c/JJ	.
=19	=19	=19
4F\	16d/ 16g/LL	16cc#\LL
.	16B/	16dd\
.	16d/ 16g/	16ccn\
.	16B/	16b\JJ
8G\	16d/ 16g/	16a/LL
.	16B/JJ	16g/JJ
=20	=20	=20
8E\L	16e/ 16g/LL	8g/
.	16c/	.
8C\	16e/ 16cc/	8cc\
.	16c/JJ	.
8E\J	16g/ 16b-/LL	8b-\
.	16c/JJ	.
=21	=21	=21
4F\	16f/ 16a/LL	4a/
.	16c/	.
.	16f/ 16a/	.
.	16c/JJ	.
16G\LL	16f/ 16bn/LL	8bn\
16G#\JJ	16d/JJ	.
=22	=22	=22
8.A\L	16e/ 16cc/LL	4cc\
.	16c/	.
.	16e/ 16cc/	.
16Gn\Jk	16c/JJ	.
16F\LL	16a/ 16dd/LL	8dd\
16D\JJ	16f/JJ	.
=23	=23	=23
*	*^	*
8G\L	8.b/L	16f\LL	(8.b/L
.	.	16d\	.
8GG\	.	16f\	.
.	16a/k	16d\	16a/Jk)
8G\J	8b/J	16f\	8b\
.	.	16d\JJ	.
*	*v	*v	*
=24	=24	=24
*^	*	*
(16C/LL	4.C\	8.e\ 8.cc\L	4cc\
16G/JJ	.	.	.
4G/ 4c/)	.	.	.
.	.	(16ee\L	.
.	.	16gg\	8r
.	.	16ccc\JJ)	.
=25	=25	=25	=25
16G/LL	4.F\	(8ddd\L	4.r
16d/	.	.	.
16G/	.	16ccc\L	.
16d/	.	16bb\	.
16G/	.	16aa\	.
16d/JJ	.	16gg\JJ)	.
=26	=26	=26	=26
16G/LL	4.E\	4ccc\	4.r
16c/	.	.	.
16G/	.	.	.
16c/	.	.	.
16G/	.	8ccc\	.
16c/JJ	.	.	.
*v	*v	*	*
=27	=27	=27
16G/LL	(16ccc#\LL	4.r
16d/	16ddd\	.
16G/	16cccn\	.
16d/	16bb\	.
16G/	16aa\	.
16d/JJ	16gg\JJ)	.
=28	=28	=28
*^	*	*
16G/LL	4E\	(8gg\L	4.r
16c/	.	.	.
16G/	.	8cc\ 8ccc\)	.
16c/	.	.	.
16G#/	8E\	8b\ 8bb\J	.
16d/JJ	.	.	.
=29	=29	=29	=29
16F/LL	4F\	4a\ 4aa\	4.r
16A/	.	.	.
16c/	.	.	.
16f/JJ	.	.	.
16d/LL	8G\	8b\ 8bb\	.
16f/JJ	.	.	.
=30	=30	=30	=30
16A/LL	4A\	4cc\ 4ccc\	4.r
16c/	.	.	.
16e/	.	.	.
16a/JJ	.	.	.
16A/LL	8F\	8dd\ 8ddd\	.
16f/JJ	.	.	.
=31	=31	=31	=31
16d/LL	4G\	8.b\ 8.bb\L	4.r
16f/	.	.	.
16d/	.	.	.
16f/	.	16a\ 16aa\k	.
16d/	8G\	8b\ 8bb\J	.
16f/JJ	.	.	.
*v	*v	*	*
=32	=32	=32
8c\ 8e\L	4cc\ 4ee\ 4ccc\	4r
8C\J	.	.
==	==	==
*-	*-	*-
!!!ENC: Craig Stuart Sapp
!!!END: 2004/06/03/
!!!EFL: 123/651
